X: 26347
T: Mermaid Of Mullaghmore, The
R: reel
M: 4/4
K: Dmajor
AFDF A2AG|FGAF GFED|FGAF D2(3.e.fg|fdec AddA|
FEDF A3G|FGAF GFED|CEAF D2(3.e.fg|fdec defg||
a2fa dafa|fge=c Gceg|a2fa dafa|gbag fddf|
a2fa dafa|fge=c Gceg|fage fdec|dABG FDDF||

